ix/sidebar-top_outline.svg

<svg viewBox="0 0 24 24" fill="none" xmlns="http://www.w3.org/2000/svg" height="1em" width="1em">
  <path d="M14.9707 22.75H8.9707C3.5407 22.75 1.2207 20.43 1.2207 15V9C1.2207 3.57 3.5407 1.25 8.9707 1.25H14.9707C20.4007 1.25 22.7207 3.57 22.7207 9V15C22.7207 20.43 20.4107 22.75 14.9707 22.75ZM8.9707 2.75C4.3607 2.75 2.7207 4.39 2.7207 9V15C2.7207 19.61 4.3607 21.25 8.9707 21.25H14.9707C19.5807 21.25 21.2207 19.61 21.2207 15V9C21.2207 4.39 19.5807 2.75 14.9707 2.75H8.9707Z" fill="#292D32"/>
  <path d="M22 9.25H2C1.59 9.25 1.25 8.91 1.25 8.5C1.25 8.09 1.59 7.75 2 7.75H22C22.41 7.75 22.75 8.09 22.75 8.5C22.75 8.91 22.41 9.25 22 9.25Z" fill="#292D32"/>
  <path d="M14.5609 16.2499C14.3709 16.2499 14.1809 16.1799 14.0309 16.0299L12.0009 13.9999L9.97086 16.0299C9.68086 16.3199 9.20086 16.3199 8.91086 16.0299C8.62086 15.7399 8.62086 15.2599 8.91086 14.9699L11.4709 12.4099C11.7609 12.1199 12.2409 12.1199 12.5309 12.4099L15.0909 14.9699C15.3809 15.2599 15.3809 15.7399 15.0909 16.0299C14.9409 16.1799 14.7509 16.2499 14.5609 16.2499Z" fill="#292D32"/>
</svg>

<svg viewBox="0 0 24 24" fill="none" xmlns="http://www.w3.org/2000/svg" height="1em" width="1em">
  <path d="M14.97 22.75h-6c-5.43 0-7.75-2.32-7.75-7.75V9c0-5.43 2.32-7.75 7.75-7.75h6c5.43 0 7.75 2.32 7.75 7.75v6c0 5.43-2.31 7.75-7.75 7.75Zm-6-20C4.36 2.75 2.72 4.39 2.72 9v6c0 4.61 1.64 6.25 6.25 6.25h6c4.61 0 6.25-1.64 6.25-6.25V9c0-4.61-1.64-6.25-6.25-6.25h-6Z" fill="#292D32"/>
  <path d="M22 9.25H2c-.41 0-.75-.34-.75-.75s.34-.75.75-.75h20c.41 0 .75.34.75.75s-.34.75-.75.75Zm-7.44 7c-.19 0-.38-.07-.53-.22L12 14l-2.03 2.03c-.29.29-.77.29-1.06 0a.754.754 0 0 1 0-1.06l2.56-2.56c.29-.29.77-.29 1.06 0l2.56 2.56c.29.29.29.77 0 1.06-.15.15-.34.22-.53.22Z" fill="#292D32"/>
</svg>
